X: 32269
T: Picnic In The Sky
R: reel
M: 4/4
K: Amixolydian
|:AAAB cAAc|dcde cAAc|ddde fffa|eccA B2 cB|
AAAB cAAc|dcde cAAc|defa effa|eccB AecB:|
|:Aaae faec|aefa eAcA|ddde fffa|1 eccA B2 cd|
eaae faea|dac/c/a B/B/aA/A/a|defa effa|eccB AecB:|
[2 eccA B2 cB|AAAB cAAc|dcde cAAc|defa effa|
eccB Afed|:c3 d eAcA|f3 a eAcA|d3 e fAA/A/A|
eccA B2 ed|c3 d eAcA|f3 a eAcA|defa effa|
[1 eccB Afed:|2 eccB ABcd||e2 ce Aeee|ceAe eece|
eede Beee|deBe eede|eece Aeee|cAeA ceAc|
defa effa|eccB ABcd||e2 ce Aeee|ceAe eece|
eede Bede|gede Bede|aece AceA|ceAc eAce|
defa effa|eccB A/A/AA2||

